svg/transport/fan_direction_front_fill.svg

<?xml version="1.0" encoding="UTF-8"?>
<svg width="24px" height="24px" viewBox="0 0 24 24" version="1.1" xmlns="http://www.w3.org/2000/svg" xmlns:xlink="http://www.w3.org/1999/xlink">
    <title>fan_direction_front_fill</title>
    <g id="页面-1" stroke="none" stroke-width="1" fill="none" fill-rule="evenodd">
        <g id="Transport" transform="translate(-624.000000, -144.000000)" fill-rule="nonzero">
            <g id="fan_direction_front_fill" transform="translate(624.000000, 144.000000)">
                 <path d="M24,0 L24,24 L0,24 L0,0 L24,0 Z M12.5934901,23.257841 L12.5819402,23.2595131 L12.5108777,23.2950439 L12.4918791,23.2987469 L12.4918791,23.2987469 L12.4767152,23.2950439 L12.4056548,23.2595131 C12.3958229,23.2563662 12.3870493,23.2590235 12.3821421,23.2649074 L12.3780323,23.275831 L12.360941,23.7031097 L12.3658947,23.7234994 L12.3769048,23.7357139 L12.4804777,23.8096931 L12.4953491,23.8136134 L12.4953491,23.8136134 L12.5071152,23.8096931 L12.6106902,23.7357139 L12.6232938,23.7196733 L12.6232938,23.7196733 L12.6266527,23.7031097 L12.609561,23.275831 C12.6075724,23.2657013 12.6010112,23.2592993 12.5934901,23.257841 L12.5934901,23.257841 Z M12.8583906,23.1452862 L12.8445485,23.1473072 L12.6598443,23.2396597 L12.6498822,23.2499052 L12.6498822,23.2499052 L12.6471943,23.2611114 L12.6650943,23.6906389 L12.6699349,23.7034178 L12.6699349,23.7034178 L12.678386,23.7104931 L12.8793402,23.8032389 C12.8914285,23.8068999 12.9022333,23.8029875 12.9078286,23.7952264 L12.9118235,23.7811639 L12.8776777,23.1665331 C12.8752882,23.1545897 12.8674102,23.1470016 12.8583906,23.1452862 L12.8583906,23.1452862 Z M12.1430473,23.1473072 C12.1332178,23.1423925 12.1221763,23.1452606 12.1156365,23.1525954 L12.1099173,23.1665331 L12.0757714,23.7811639 C12.0751323,23.7926639 12.0828099,23.8018602 12.0926481,23.8045676 L12.108256,23.8032389 L12.3092106,23.7104931 L12.3186497,23.7024347 L12.3186497,23.7024347 L12.3225043,23.6906389 L12.340401,23.2611114 L12.337245,23.2485176 L12.337245,23.2485176 L12.3277531,23.2396597 L12.1430473,23.1473072 Z" id="MingCute" fill-rule="nonzero"></path>
                <path d="M18.1411,7.57697 C18.927,7.83895 19.3517,8.68843 19.0898,9.47434 L18.5627,11.0555 C17.678,13.7097 15.1941,15.5 12.3963,15.5 L9.85419,15.5 C9.28603,15.5 8.76663,15.821 8.51255,16.3292 L6.34173,20.6708 C5.97124,21.4118 5.07023,21.7121 4.32926,21.3416 C3.5883,20.9712 3.28796,20.0701 3.65844,19.3292 L5.82926,14.9875 C6.59153,13.463 8.14971,12.5 9.85419,12.5 L12.3963,12.5 C13.9028,12.5 15.2403,11.536 15.7167,10.1068 L16.2437,8.52566 C16.5057,7.73974 17.3552,7.315 18.1411,7.57697 Z M7.94561869,3.7150491 L8.05954,3.81802 L10.1809,5.93934 C10.4622,6.22064 10.6202,6.60218 10.6202,7 C10.6202,7.3480925 10.4992313,7.68372062 10.28054,7.95063773 L10.1809,8.06066 L8.05954,10.182 C7.47376,10.7678 6.52401,10.7678 5.93822,10.182 C5.38904188,9.63280312 5.35471824,8.7637459 5.8352491,8.17458296 L5.93822,8.06066 L6.9988775,7 L5.93822,5.93934 C5.35243,5.35355 5.35243,4.40381 5.93822,3.81802 C6.45078625,3.30545375 7.24200938,3.24138297 7.82423314,3.62580766 L7.94561869,3.7150491 Z M18.5001,3 C19.3285,3 20.0001,3.67157 20.0001,4.5 C20.0001,5.32843 19.3285,6 18.5001,6 C17.6717,6 17.0001,5.32843 17.0001,4.5 C17.0001,3.67157 17.6717,3 18.5001,3 Z" id="形状" fill="#09244B"></path>
            </g>
        </g>
    </g>
</svg>

<svg xmlns="http://www.w3.org/2000/svg" width="24" height="24"><g fill="none" fill-rule="nonzero"><path d="M24 0v24H0V0h24ZM12.593 23.258l-.011.002-.071.035-.02.004-.014-.004-.071-.035c-.01-.004-.019-.001-.024.005l-.004.01-.017.428.005.02.01.013.104.074.015.004.012-.004.104-.074.012-.016.004-.017-.017-.427c-.002-.01-.009-.017-.017-.018Zm.265-.113-.013.002-.185.093-.01.01-.003.011.018.43.005.012.008.007.201.093c.012.004.023 0 .029-.008l.004-.014-.034-.614c-.003-.012-.01-.02-.02-.022Zm-.715.002a.023.023 0 0 0-.027.006l-.006.014-.034.614c0 .012.007.02.017.024l.015-.002.201-.093.01-.008.004-.011.017-.43-.003-.012-.01-.01-.184-.092Z"/><path fill="#09244B" d="M18.141 7.577a1.5 1.5 0 0 1 .949 1.897l-.527 1.582a6.5 6.5 0 0 1-6.167 4.444H9.854a1.5 1.5 0 0 0-1.341.83l-2.171 4.34a1.5 1.5 0 1 1-2.684-1.34l2.171-4.342A4.5 4.5 0 0 1 9.854 12.5h2.542a3.5 3.5 0 0 0 3.32-2.393l.528-1.581a1.5 1.5 0 0 1 1.897-.949ZM7.946 3.715l.114.103 2.12 2.121a1.5 1.5 0 0 1 .1 2.012l-.1.11-2.12 2.121a1.5 1.5 0 0 1-2.225-2.007l.103-.114L6.998 7l-1.06-1.06a1.5 1.5 0 0 1 1.886-2.314l.122.089ZM18.5 3a1.5 1.5 0 1 1 0 3 1.5 1.5 0 0 1 0-3Z"/></g></svg>
